X: 36606
T: Shamrock, The
R: barndance
M: 4/4
K: Dmajor
|:(3BAG|F2 A>d f>ag>f|e2 B>^A B2 e>f|g>fg>e c>Ad>e|f>^ef>d A>BA>G|
(3FGF A>d f>ag>f|e2 B2 B2 e>f|g>fg>e c>A (3gfe|d2 A2 D2:|
|:f>g|a>fb>a f>ag>f|e2 d2 B2 e>f|g>fg>e c>Ad>f|a>^gb>a f2 (3ef=g|
a>fb>a f2 (3agf|(3efe B>^A B2 e>d|c>gg>e (3cBA (3gfe|d2 c2 d2:|

